X: 418
T: Bir Tesellî Beklerim
C: Şerif İçli
O: Turkey
F: http://compmusic.upf.edu/node/140
N: acemasiran--sarki--agiraksak--bir_teselli--serif_icli
N: makam= acemasiran
N: form= sarki
N: usul= agiraksak = 9/4
M: 9/4
L: 1/16
K: C _B   
Q: 1/4=72
%%MIDI tuningsystem comma53
e2f4b2 a2ba g2ag f2gf e2fe d2ed c2d2 c2B2  | 
w:  ARANAĞME  | 
A3B c2d2 c2B2 A2G2 A3G GFFE F4 c2de f4  | \
w:   | 
e2f4b2 a2ba g2ag f2gf e2fe d2ed c2d2 c2B2  | 
w:   | 
A3B c2d2 c2B2 A2G2 A3G GFFE F8 z4  | \
w:   | 
c2de f4 z2c4f2 e2f6 gfef e2fg f2g2  | 
w:  *  *  *  *  Bir  te sel *  lî   | 
g2f4e2 z2d4e2 d2e4d2 d2c2 c2_2/4B2 e2dc  | \
w:  *  *  *  bek le rim  *  *  gön  | 
c8-c2c4g2 g6a2 g2f2 e2f2 g2a2  | 
w:  *  lüm de ki  *  bin   | 
b2ag fed2 z2c4f2 e2f2 g2gf f6c2 d2e2  | \
w:  *  *  *  *  *  *  yâ *  *  *  *  re *  ye   SAZ  | 
f3/2e/fg fede f2g2 f2e2 f3e d4 e3d c4 d4  | 
w:  *  *  *  *  *  *  *  *  *  Rû *  hum_ ağ *  *  lar   | 
d2e2 cBBA A2A4B2 A2B4c2 d2c2 B2A2 AGFG  | \
w:  *  *  *  *  *  *  *  yal va rır  *  *  bah  | 
A8-A2A4BA G6d2 c2B2 A2B2 c2d2  | 
w:  *  tım da *  ki  *  sey  | 
cBAG FED2 z2D4A2 G2F2 E2{A}GF F6c2 d2e2  | \
w:  *  *  *  *  *  *  *  yâ *  *  *  *  *  re *  ye   SAZ  | 
f3/2e/fg fede f2g2 f2e2 f3e d4 e3d c4 d4  | 
w:  *  *  *  *  *  *  *  *  *  Rû *  hum_ ağ *  *  lar   | 
d2e2 cBBA A2A4B2 A2B4c2 d2c2 B2A2 AGFG  | \
w:  *  *  *  *  *  *  *  yal va rır  *  *  bah  | 
A8-A2A4BA G6d2 c2B2 A2B2 c2d2  | 
w:  *  tım da *  ki  *  sey  | 
cBAG FED2 z2D4A2 G2F2 E2{A}GF F6c_3/4d c_2/4BAB  | 
w:  *  *  *  *  *  *  *  yâ *  *  *  *  *  re *  ye   SAZ  | 
c8 z2A4_2/4B2 c8 e3_3/4d d3c B2d2  | \
w:  *  Baş vu rur ken   | 
c2_3/4d2 c_2/4BBA B2B4B2 B3A G4 A2B2 =d2c2 B2A2  | 
w:  *  *  *  *  *  *  *  yan mak_ üm *  *  mi  | 
A2c_2/4B AG^3/4F^3/4E F2d4d2 d8 e4 f4 a4  | \
w:  *  *  *  *  *  *  *  *  diy le  her  bir   | 
g2ag fede c2c4f2 e2f2 g2gf f6c2 d2e2  | 
w:  *  *  *  *  *  *  *  *  ça *  *  *  *  re *  ye   SAZ  | 
f3/2e/fg fede f2g2 f2e2 f3e d4 e3d c4 d4  | \
w:  *  *  *  *  *  *  *  *  *  Rû *  hum_ ağ *  *  lar   | 
d2e2 cBBA A2A4B2 A2B4c2 d2c2 B2A2 AGFG  | 
w:  *  *  *  *  *  *  *  yal va rır  *  *  bah  | 
A8-A2A4BA G6d2 c2B2 A2B2 c2d2  | cBAG FED2 z2D4A2 G2F2 E2{A}GF F6c2 d2e2  | 
w:  *  tım da *  ki  *  sey  |  *  *  *  *  *  *  *  yâ *  *  *  *  *  re *  ye   SAZ  | 
f3/2e/fg fede f2g2 f2e2 f3e d4 e3d c4 d4  | \
w:  *  *  *  *  *  *  *  *  *  Rû *  hum_ ağ *  *  lar   | 
d2e2 cBBA A2A4B2 A2B4c2 d2c2 B2A2 AGFG  | 
w:  *  *  *  *  *  *  *  yal va rır  *  *  bah  | 
A8-A2A4BA G6d2 c2B2 A2B2 c2d2  | cBAG FED2 z2D4A2 G2F2 E2{A}GF F6|
w:  *  tım da *  ki  *  sey  |  *  *  *  *  *  *  *  yâ *  *  *  *  *  re *  ye    | 


